X:1
T:Newland (Armstrong), 65.65
T:Newland (Armstrong), 65.65
T:James Armstrong (1840-1928)
T:Public Domain Courtesy of the Cyber Hymnal™
C:James Armstrong (1840-1928)
Z:Public Domain
Z:Courtesy of the Cyber Hymnal™
%%score ( 1 2 ) ( 3 4 )
L:1/8
Q:1/4=115
M:none
K:D
V:1 treble 
V:2 treble 
V:3 bass 
V:4 bass 
V:1
"^Brightly" [FA]2 [Fd]2 [Ac]2 [GB]2 | [FA]4 [DF]4 | [EG]2 [DF]2 [B,E]2 D2 | ([DF]4 [CE]4) | %4
 [DA]2 [Fd]2 [Ec]2 [EB]2 | [EA]4 [DF]4 | E2 [EG]2 [DF]2 [CE]2 | D8 |] %8
V:2
 x8 | x8 | x6 D2 | x8 | x8 | x8 | E2 x6 | D8 |] %8
V:3
 [D,D]2 [D,D]2 [G,,D]2 [B,,D]2 | [D,D]4 [D,A,]4 | [C,A,]2 [D,A,]2 [G,B,]2 [^G,B,]2 | A,8 | %4
 [F,A,]2 [D,A,]2 [E,G,]2 [D,G,]2 | [C,A,]4 [D,A,]4 | [G,B,]2 [E,B,]2 A,3 [A,,G,] | [D,F,]8 |] %8
V:4
 x8 | x8 | x8 | (A,6 G,2) | x8 | x8 | x4 A,3 x | x8 |] %8

